!!!ONB: MCCC : ILB0328_04 : Extracted Monophonic Melody
!!!COM: Beethoven, Ludwig van
!!!OPR: Violin Sonata No.7 in C minor
!!!OMV: 4
!!!SCT: Op.30 No.2
!!!ODT: 1801///
**kern
*staff1
*clefF4
*k[f#]
*G:
*M4/4
8BBB
8CC
8BBB
8CC
=2
4GGG#
4GGG#
4GGG#
4GGG#
=3
4GG#
4GG#
4GG#
4GG#
=4
2GG
2r
=5
4G
4r
4G
4r
=6
4F
4r
2r
=7
4D#
4r
4D#
4r
=8
4D
4r
8BBB
8CC
8BBB
8CC
=9
4GGG#
4GGG#
4GGG#
4GGG#
=10
4GG#
4GG#
4GG#
4GG#
=11
2GG
2r
=12
4G
4r
4G
4r
=13
4F
4r
2r
=14
4D#
4r
4D
4r
=15
4C
4r
2r
=16
2.G
4r
=17
2.G
4r
=18
2.G
4r
=19
2G
8r
8B
8d
8f
=20
2.g
4r
=21
2.g
4r
=22
2g
4d
4c
=23
4B
4r
8BBB
8CC
8BBB
8CC
=24
4GGG#
4GGG#
4GG#
4GG#
=25
4GG#
4GG#
4GG#
4GG#
=26
2FF
2r
=27
4B-
4r
4B-
4r
=28
4G#
4r
2r
=29
4F#
4r
4F#
4r
=30
4BBB-
4F
4F
4F
=31
4BBB-
4F
4F
4F
=32
4BBB-
4F#
4F#
4F#
=33
4BBB-
4F#
4F#
4F#
=34
4BBB-
4G#
4G#
4G#
=35
4BBB-
4G
4G
4G
=36
4BBB-
4F
4F
4F
=37
4F
4r
2r
=38
1r
=39
1r
=40
8D#
8B-
8G
8B-
8D#
8B-
8G
8B-
=41
8D#
8B-
8G
8B-
8D#
8B-
8G
8B-
=42
8G#
8B-
8F
8B-
8D
8B-
8F
8B-
=43
8D
8B-
8F
8B-
8D
8B-
8F
8B-
=44
8D#
8B-
8G
8B-
8D#
8B-
8G
8B-
=45
8D#
8B-
8G
8B-
8D#
8B-
8G
8B-
=46
8G#
8B-
8F
8B-
8D
8B-
8F
8B-
=47
8D
8B-
8F
8B-
8D
8B-
8F
8B-
=48
8D#
8B-
8G
8B-
8D#
8B-
8C#
8B-
=49
8C
8B-
8G
8B-
8C
8B-
8G
8B-
=50
8F
8c
8G#
8c
8F
8c
8D#
8c
=51
8D
8c
8A
8c
8D
8c
8A
8c
=52
8G
8B-
8G
8B-
8D#
8c#
8D#
8c#
=53
8G#
8c
8G#
8c
8F
8d#
8F
8d#
=54
8B-
8d
8B-
8d
8G#
8B-
8G#
8B-
=55
8G
8B-
8G
8B-
8GG#
8G#
8GG#
8G#
=56
4B-
4r
2r
=57
4BB-
4r
2r
=58
4D#
4F#
4D#
4F#
=59
4D#
4F#
4D#
4F#
=60
4F
4D
4BB-
4D
=61
4BB-
4D
4BB-
4D
=62
4D#
4F#
4D#
4F#
=63
4D#
4F#
4D#
4F#
=64
8E#
8G#
8C#
8F
8D#
8F#
8E#
8G#
=65
8F#
8B-
8F#
8B-
8F#
8B-
8F#
8B-
=66
8G#
8B
8G#
8B
8G#
8B
8G#
8B
=67
4f
4r
4f
4r
=68
4f#
4r
4f#
4r
=69
4f
4r
2r
=70
4G
4r
2r
=71
4GG#
4r
2r
=72
4BB-
4r
2r
=73
4D#
4D#
4D#
4D#
=74
4D#
4D#
4D#
4D#
=75
4D#
4D#
4D#
4D#
=76
4D#
4D#
4D#
4D#
=77
8DD#
8B-
8G
8B-
8G
8B-
8G
8B-
=78
8G
8B-
8G
8B-
8G
8B-
8G
8B-
=79
8G#
8B
8G#
8B-
8G#
8B-
8G#
8B-
=80
8G#
8B-
8G#
8B-
8G#
8B-
8G#
8B-
=81
1D#
=82
8F
8G
8F
8G
8D#
8G
8D#
8G
=83
8D
8G
8D
8G
8D
8G
8D
8G
=84
8D#
8G
8D#
8G
8D#
8G
8D#
8G
=85
8D
8G
8D
8G
8D
8G
8D
8G
=86
8D#
8G
8D#
8G
8D#
8G
8D#
8G
=87
8D
8G
8D
8G
8D
8G
8D
8G
=88
8C
8G
8C
8G
8C
8G
8C
8G
=89
1BB
=90
1r
=91
1r
=92
1r
=93
2r
8BBB
8CC
8BBB
8CC
=94
4GGG#
4GGG#
4GGG#
4GGG#
=95
4GG#
4GG#
4GG#
4GG#
=96
2GG
2r
=97
4G
4r
4G
4r
=98
4F
4r
2r
=99
4D#
4r
4D#
4r
=100
4D
4r
8BBB
8CC
8BBB
8CC
=101
4GGG#
4GGG#
4GGG#
4GGG#
=102
4GG#
4GG#
4GG#
4GG#
=103
2GG
2r
=104
4G
4r
4G
4r
=105
4F
4r
2r
=106
4D#
4r
4D
4r
=107
4C
8G
8F
8E
8F
8D
8E
=108
2.G
4r
=109
2.G
4r
=110
2G
2D
=111
8D
8GG
8BB
8D
8G
8B
8d
8f
=112
2.g
4r
=113
2.g
4f
=114
2e
4d
4c
=115
2d[
8d]
8F
8E
8D
=116
2.A
4r
=117
2.A
4r
=118
2.G
4r
=119
2.G
4r
=120
2G
4F
4E
=121
2.A
8G
8F
=122
4G
4GG
4GG
4GG
=123
4C
8g
8f#
8g
8f
8e
8d
=124
2.a
4r
=125
2.a
4r
=126
2.g
4f
=127
2.g
4r
=128
2G
4F
4E
=129
2.A
8G
8F
=130
4G
4d
4d
4d
=131
4c
4r
2r
=132
8c
8B
8A
8G
8F
8E
8D
8C
=133
2.F
8E
8D
=134
4G
4G
4G
4GG
=135
2C
4D
4D#
=136
4.D
8C
4D
4GG
=137
2D#
4D
4C
=138
4BB-
4AA
4GG
4FF#
=139
8GG
8d
8d#
8d
8c
8B-
8A
8G
=140
8F#
8G
8F#
8E
8F#
8D
8E
8F#
=141
8G
8F#
8G
8D
8F
8E
8F
8D
=142
8F
8G#
8G
8F
8D#
8D
8C
8BB
=143
4C
4r
8B
8c
8B
8c
=144
2r
8FFF#
8GGG
8FFF#
8GGG
=145
2C
4D
4D#
=146
4D
8r
8C
4D
4GG
=147
2G#
4G
4F
=148
4D#
4D
2C
=149
1r
=150
2r
4r
4CC
=151
2FF
4GG
4GG#
=152
2.GG
4r
=153
2GG
4AA
4BB-
=154
2.AA
4r
=155
2AA
4BB
4C
=156
2BB
4C
4D
=157
2C
4D
4D#
=158
2C##
4D#
4F
=159
4BB
8C
8D
4FF
8GG
8GG#
=160
4DD
8DD#
8FF
4BBB
8CC
8DD
=161
1GGG[
=162
1GGG]
=163
2r
4D
8D#
8F
=164
4BB
8C
8D
4BB
8C
8D
=165
1GG[
=166
4GG]
4r
8BBB
8CC
8BBB
8CC
=167
4GGG#
4GGG#
4GGG#
4GGG#
=168
4GG#
4GG#
4GG#
4GG#
=169
2GG
2r
=170
4G
4r
4G
4r
=171
4F
4r
2r
=172
4D#
4r
4D#
4r
=173
4D
4r
8BBB
8CC
8BBB
8CC
=174
4GGG#
4GGG#
4GGG#
4GGG#
=175
4GG#
4GG#
4GG#
4GG#
=176
2AA
2r
=177
4c
4r
4c#
4r
=178
4d#
4r
2r
=179
4F
4r
4d#
4r
=180
2.F
4r
=181
2.F
4r
=182
2.F
4r
=183
2F
8r
8A
8c
8d#
=184
2f
4d#
4c#
=185
2.c
4G#
=186
4c#
4B-
4G
4F
=187
2.E
4C
=188
2F
4C#
4C
=189
2.BB
4r
=190
2C
4GG#
4GG
=191
2.FF#
4r
=192
4GG
4d
4d
4d
=193
4GG
4d
4d
4d
=194
4GG
4d#
4d#
4d#
=195
4GG
4d#
4d#
4d#
=196
4GG
4f
4f
4f
=197
4GG
4d#
4d#
4d#
=198
4GG
4d
4d
4d
=199
4f
4r
2r
=200
1r
=201
1r
=202
8C
8G
8D#
8G
8C
8G
8D#
8G
=203
8C
8G
8D#
8G
8C
8G
8D#
8G
=204
8F
8G
8D
8G
8BB
8G
8D
8G
=205
8BB
8G
8D
8G
8BB
8G
8D
8G
=206
8C
8G
8D#
8G
8C
8G
8D#
8G
=207
8C
8G
8D#
8G
8C
8G
8D#
8G
=208
8F
8G
8D
8G
8BB
8G
8D
8G
=209
8BB
8G
8D
8G
8BB
8G
8D
8G
=210
8C
8G
8D#
8G
8C
8F#
8GG#
8F#
=211
8C#
8G#
8F
8G#
8C#
8G#
8BB
8G#
=212
8BB-
8G#
8BB
8G#
8BB-
8G#
8BB-
8G#
=213
8D#
8B-
8G
8B-
8D#
8B-
8C#
8B-
=214
8C
8B-
8C#
8B-
8C
8B-
8C
8B-
=215
8F
8G#
8F
8D#
8D
8c
8D
8c
=216
8G
8B
8G
8B
8F
8G
8F
8G
=217
8D#
8G
8D#
8G
8FF
8GG#
8D
8F
=218
4G
4r
2r
=219
4GG
4r
2r
=220
4C
4D#
4C
4D#
=221
4C
4D#
4C
4D#
=222
4D
4BB
4GG
4BB
=223
4GG
4BB
4GG
4BB
=224
4C
4D#
4C
4D#
=225
4C
4D#
4C
4D#
=226
4D
8BB-
8D
8C
8D#
8D
8F
=227
8D#
8G
8D#
8G
8D#
8G
8D#
8G
=228
8F
8G#
8F
8G#
8F
8G#
8F
8G#
=229
4d
4r
4d
4r
=230
4d#
4r
4d#
4r
=231
4d
4r
2r
=232
4c
4r
2r
=233
4F
4r
2r
=234
4GG
4r
2r
=235
4C
4C
4C
4C
=236
4C
4C
4C
4C
=237
4C
4C
4C
4C
=238
4C
4C
4C
4C
=239
8C
8G
8D#
8G
8D#
8G
8D#
8G
=240
8D#
8G
8D#
8G
8D#
8G
8D#
8G
=241
8F
8G#
8F
8G
8F
8G
8F
8G
=242
8F
8G
8F
8G
8F
8G
8F
8G
=243
1C
=244
8C#
8D#
8C#
8D#
8C
8D#
8C
8D#
=245
8BB-
8D#
8BB-
8D#
8BB-
8D#
8BB-
8D#
=246
8C
8D#
8C
8D#
8C
8D#
8C
8D#
=247
8BB-
8C
8BB-
8C
8BB-
8C
8BB-
8C
=248
8GG#
8C
8GG#
8C
8GG#
8C
8GG#
8C
=249
8GG
8C
8GG
8C
8GG
8C
8GG
8C
=250
8GG#
8C
8GG#
8C
8GG#
8C
8GG#
8C
=251
8GG
8C
8GG
8C
8GG
8C
8GG
8C
=252
8FF
8C
8FF
8C
8FF
8C
8FF
8C
=253
1C
=254
1r
=255
1r
=256
1r
=257
2r
8BBB
8CC
8BBB
8CC
=258
4GGG#
4GGG#
4GGG#
4GGG#
=259
4GG#
4GG#
4GG#
4GG#
=260
2GG
2r
=261
4G
4r
4G
4r
=262
4F
4r
2r
=263
4D#
4r
4D#
4r
=264
4D
4r
8BBB
8CC
8BBB
8CC
=265
4GGG#
4GGG#
4GG#
4GG#
=266
4GG#
4GG#
4GG#
4GG#
=267
2GG#
2r
=268
4G#
4r
4G#
4r
=269
4F#
4r
2r
=270
4GG#
4r
4GG#
4r
=271
4C#
4r
2r
=272
4B-
4r
4B-
4r
=273
4G#
4r
2r
=274
4BB-
4r
4BB-
4r
=275
4D#
4r
2r
=276
4c#
4r
4B
4r
=277
4c
4r
2r
=278
4G#
4r
4E
4r
=279
4F
4r
2r
=280
4G#
4r
2r
=281
4G
4r
2r
=282
4GG
4r
2r
=283
2C
8BB
8C
8BB
8C
=284
2GG#
8BB
8C
8BB
8C
=285
2GG
8BB
8C
8BB
8C
=286
2FF
8BB
8C
8BB
8C
=287
4DD#
4r
4FF
4r
=288
4GG
4r
4GG
4r
=289
2CC
8BB
8C
8BB
8C
=290
2GG#
8BB
8C
8BB
8C
=291
2GG
8BB
8C
8BB
8C
=292
2FF
8BB
8C
8BB
8C
=293
8DD#
8C
8BB
8C
8GG#
8C
8BB
8C
=294
8GG
8C
8BB
8C
8FF
8C
8BB
8C
=295
8DD#
8C
8BB
8C
8GG#
8C
8BB
8C
=296
8GG
8C
8BB
8C
8FF
8C
8BB
8C
=297
8DD#
8C
8GG#
8C
8GG
8C
8FF
8C
=298
8DD#
8C
8GG#
8C
8GG
8C
8FF
8C
=299
8DD#
8C
8GG#
8C
8GG
8C
8GG#
8C
=300
8GG
8C
8GG#
8C
8GG
8C
8GG#
8C
=301
4GG
4r
2r
=302
1r
=303
4GGG
8AAA
8BBB
8CC
8DD
8DD#
8FF
=304
8GG
8AA
8BB
8C
8D
8D#
8F
8G
=305
4C
4r
2r
=306
1r
=307
8r
8GGG
8AAA
8BBB
8CC
8DD
8DD#
8FF
=308
8GG
8FF#
8GG
8FF#
8GG
8FF
8DD#
8DD
=309
4CC
4r
2r
=310
1r
=311
2r
2GGG[
=312
4GGG]
8AAA
8BBB
8CC
8DD
8DD#
8FF
=313
2.G
4D#
=314
4C
4D
4D#
4C
=315
4D
4GG
2G
=316
2G
2G
=317
2.G
4D#
=318
4C
4D
4D#
4C
=319
2D
2GG
=320
2.C
4r
=321
2D
2GG
=322
2.C
4r
=323
4D
4GG
4C
4GG
=324
4D
4GG
4C
4GG
=325
4D
4GG
4GG
4GG
=326
4GG
4GG
4GG
4GG
=327
4C
4r
2r
=328
2C
2r
=329
2C
2r
==
*-
